X: 15514
T: Glenside, The
R: polka
M: 2/4
K: Edorian
|:A|B2 BA|F/G/A D2|B2 BA|B/c/d ed|
B2 BA|F/G/A D>E|FD AF|E2 E:|
|:A|Be e>f|ed BA|Be ef|ed Bc|
d>e dB|AF D>E|FD AF|E2- E:|

